actions/symbolic/appointment-symbolic.svg

<?xml version="1.0" encoding="UTF-8" standalone="no"?>
<svg
   xmlns:dc="http://purl.org/dc/elements/1.1/"
   xmlns:cc="http://creativecommons.org/ns#"
   xmlns:rdf="http://www.w3.org/1999/02/22-rdf-syntax-ns#"
   xmlns:svg="http://www.w3.org/2000/svg"
   xmlns="http://www.w3.org/2000/svg"
   xmlns:sodipodi="http://sodipodi.sourceforge.net/DTD/sodipodi-0.dtd"
   xmlns:inkscape="http://www.inkscape.org/namespaces/inkscape"
   height="16"
   width="16"
   version="1.1"
   id="svg6"
   sodipodi:docname="appointment-symbolic.svg"
   inkscape:version="0.92.2pre0 (973e216, 2017-07-25)">
  <metadata
     id="metadata12">
    <rdf:RDF>
      <cc:Work
         rdf:about="">
        <dc:format>image/svg+xml</dc:format>
        <dc:type
           rdf:resource="http://purl.org/dc/dcmitype/StillImage" />
      </cc:Work>
    </rdf:RDF>
  </metadata>
  <defs
     id="defs10" />
  <sodipodi:namedview
     pagecolor="#ffffff"
     bordercolor="#666666"
     borderopacity="1"
     objecttolerance="10"
     gridtolerance="10"
     guidetolerance="10"
     inkscape:pageopacity="0"
     inkscape:pageshadow="2"
     inkscape:window-width="1920"
     inkscape:window-height="1001"
     id="namedview8"
     showgrid="false"
     inkscape:zoom="14.75"
     inkscape:cx="8"
     inkscape:cy="8"
     inkscape:window-x="0"
     inkscape:window-y="0"
     inkscape:window-maximized="1"
     inkscape:current-layer="svg6" />
  <g
     color="#000"
     transform="translate(-432 -112)"
     id="g4"
     style="fill:#808080;fill-opacity:1">
    <path
       d="M438 112l-1 .25v.75h1zm0 1v1h-1v-1h-.006c-1.259.014-2.18-.03-2.932.384-.376.208-.675.56-.84.999-.164.438-.222.96-.222 1.617v8c0 .657.058 1.178.222 1.617.165.439.464.788.84.996.753.415 1.674.372 2.932.387H443.006c1.258-.015 2.178.028 2.931-.387.377-.208.674-.557.838-.996.165-.439.225-.99.225-1.617v-8c0-.658-.06-1.179-.225-1.617a1.88 1.88 0 0 0-.838-.998c-.753-.416-1.673-.37-2.931-.385H443v1h-1v-1zm4 0h1v-1l-1 .25zm-4.994 4H443c1.26.014 2.087.06 2.453.261.183.102.289.213.386.473.098.26.16 1.266.16 1.266v5c0 .592-.062 1.005-.16 1.265-.097.26-.203.372-.386.473-.366.202-1.194.247-2.453.262h-6c-1.26-.015-2.087-.06-2.454-.262-.183-.101-.289-.213-.386-.473-.098-.26-.16-.673-.16-1.265v-5c0-.593.062-1.006.16-1.266.097-.26.203-.371.386-.473.367-.202 1.196-.247 2.46-.261z"
       fill="#808080"
       font-family="sans-serif"
       font-weight="400"
       overflow="visible"
       style="line-height:normal;text-indent:0;text-align:start;text-decoration-line:none;text-decoration-style:solid;text-decoration-color:#000;text-transform:none;isolation:auto;mix-blend-mode:normal;marker:none;fill:#808080;fill-opacity:1"
       white-space="normal"
       id="path2" />
  </g>
</svg>

<svg xmlns="http://www.w3.org/2000/svg" width="16" height="16" version="1.1">
 <g style="fill:#808080" transform="translate(-432,-112)">
  <path style="fill:#808080" d="M 438,112 437,112.25 V 113 H 438 Z M 438,113 V 114 H 437 V 113 H 436.99 C 435.74,113.01 434.81,112.97 434.06,113.38 433.69,113.59 433.39,113.94 433.22,114.38 433.06,114.82 433,115.34 433,116 V 124 C 433,124.66 433.06,125.18 433.22,125.62 433.39,126.06 433.69,126.4 434.06,126.61 434.81,127.03 435.74,126.98 436.99,127 H 443.01 C 444.26,126.98 445.18,127.03 445.94,126.61 446.31,126.4 446.61,126.06 446.77,125.62 446.94,125.18 447,124.63 447,124 V 116 C 447,115.34 446.94,114.82 446.77,114.38 A 1.88,1.88 0 0 0 445.94,113.38 C 445.18,112.97 444.26,113.01 443.01,113 H 443 V 114 H 442 V 113 Z M 442,113 H 443 V 112 L 442,112.25 Z M 437.01,117 H 443 C 444.26,117.01 445.09,117.06 445.45,117.26 445.64,117.36 445.74,117.47 445.84,117.73 445.94,117.99 446,119 446,119 V 124 C 446,124.59 445.94,125 445.84,125.26 445.74,125.53 445.64,125.64 445.45,125.74 445.09,125.94 444.26,125.98 443,126 H 437 C 435.74,125.98 434.91,125.94 434.55,125.74 434.36,125.64 434.26,125.53 434.16,125.26 434.06,125 434,124.59 434,124 V 119 C 434,118.41 434.06,117.99 434.16,117.73 434.26,117.47 434.36,117.36 434.55,117.26 434.91,117.06 435.74,117.01 437.01,117 Z"/>
 </g>
</svg>
